assets/crypto-server-logo.svg

<?xml version="1.0" encoding="UTF-8"?>
<svg width="1280px" height="640px" viewBox="0 0 1280 640" version="1.1" xmlns="http://www.w3.org/2000/svg" xmlns:xlink="http://www.w3.org/1999/xlink">
    <title>crypto-serrver-logo</title>
    <defs>
        <linearGradient x1="50%" y1="94.5012019%" x2="50%" y2="0%" id="linearGradient-1">
            <stop stop-color="#861EFE" offset="0%"></stop>
            <stop stop-color="#22ACFF" offset="100%"></stop>
        </linearGradient>
        <linearGradient x1="50%" y1="94.5012019%" x2="50%" y2="0%" id="linearGradient-2">
            <stop stop-color="#861EFE" offset="0%"></stop>
            <stop stop-color="#22ACFF" offset="100%"></stop>
        </linearGradient>
        <linearGradient x1="50%" y1="94.5012019%" x2="50%" y2="0%" id="linearGradient-3">
            <stop stop-color="#861EFE" offset="0%"></stop>
            <stop stop-color="#22ACFF" offset="100%"></stop>
        </linearGradient>
        <linearGradient x1="50%" y1="94.5012019%" x2="50%" y2="0%" id="linearGradient-4">
            <stop stop-color="#861EFE" offset="0%"></stop>
            <stop stop-color="#22ACFF" offset="100%"></stop>
        </linearGradient>
        <linearGradient x1="50%" y1="94.5012019%" x2="50%" y2="0%" id="linearGradient-5">
            <stop stop-color="#861EFE" offset="0%"></stop>
            <stop stop-color="#22ACFF" offset="100%"></stop>
        </linearGradient>
        <linearGradient x1="50%" y1="94.5012019%" x2="50%" y2="0%" id="linearGradient-6">
            <stop stop-color="#861EFE" offset="0%"></stop>
            <stop stop-color="#22ACFF" offset="100%"></stop>
        </linearGradient>
        <linearGradient x1="50%" y1="94.5012019%" x2="50%" y2="0%" id="linearGradient-7">
            <stop stop-color="#861EFE" offset="0%"></stop>
            <stop stop-color="#22ACFF" offset="100%"></stop>
        </linearGradient>
    </defs>
    <g id="Page-1" stroke="none" stroke-width="1" fill="none" fill-rule="evenodd">
        <g id="crypto-serrver-logo">
            <polygon id="Path" points="0 0 1280 0 1280 640 0 640"></polygon>
            <g id="Logo" transform="translate(42.000000, 195.000000)" fill-rule="nonzero">
                <path d="M28.3820335,88.8582768 L28.3820335,102.207978 C28.3820335,116.391767 39.6507957,127.655711 53.8420801,127.655711 L77.215299,127.655711 L77.215299,114.723054 L53.8420801,114.723054 C46.7464379,114.723054 41.320579,108.882828 41.320579,102.207978 L41.320579,88.4412325 C47.5810619,85.9378959 51.7552525,79.6806252 51.7552525,73.0057748 C51.7552525,63.8275878 44.2420306,55.9016044 34.6425164,55.9016044 C25.4600466,55.9016044 17.5297804,63.4105435 17.5297804,73.0057748 C17.5297804,80.5147138 21.703971,86.7725199 28.3820335,88.8582768" id="Fill-3" fill="url(#linearGradient-1)"></path>
                <path d="M53.8420801,206.918756 L77.215299,206.918756 L77.215299,193.986635 L53.8420801,193.986635 C39.6507957,193.986635 28.3820335,205.250044 28.3820335,219.434369 L28.3820335,229.863689 C22.1210153,232.36649 17.5297804,238.624296 17.5297804,245.716191 C17.5297804,254.893842 25.0430023,262.820361 34.6425164,262.820361 C43.8249863,262.820361 51.7552525,255.311422 51.7552525,245.716191 C51.7552525,238.624296 47.5810619,232.783534 41.320579,230.280733 L41.320579,219.851413 C40.9029993,212.759518 46.7464379,206.918756 53.8420801,206.918756" id="Fill-4" fill="url(#linearGradient-2)"></path>
                <path d="M17.5297804,178.133598 C24.6254226,178.133598 30.8859055,173.962084 33.3903128,167.704278 L77.215299,167.704278 L77.215299,154.772157 L32.9727331,154.772157 C30.4688612,148.514351 24.2078429,144.342837 17.1127361,144.342837 C7.9302662,144.342837 -1.42108547e-14,151.851776 -1.42108547e-14,161.447007 C0.417044311,170.624659 7.9302662,178.133598 17.5297804,178.133598" id="Fill-5" fill="url(#linearGradient-3)"></path>
                <path d="M348.094948,102.625022 L348.094948,89.2753211 C354.35543,86.7725199 358.946665,80.5147138 358.946665,73.4228191 C358.946665,64.2451674 351.433979,56.3186488 341.834465,56.3186488 C332.651995,56.3186488 324.721729,63.8275878 324.721729,73.4228191 C324.721729,80.5147138 328.895384,86.3554756 335.156402,88.8582768 L335.156402,102.625022 C335.156402,109.716917 329.312963,115.140099 322.634901,115.140099 L299.261682,115.140099 L299.261682,128.072755 L322.634901,128.072755 C336.82565,128.072755 348.094948,116.391767 348.094948,102.625022" id="Fill-6" fill="url(#linearGradient-4)"></path>
                <path d="M335.573446,219.851413 L335.573446,230.280733 C329.312963,232.783534 325.139308,239.04134 325.139308,245.716191 C325.139308,254.893842 332.651995,262.820361 342.251509,262.820361 C351.433979,262.820361 359.364245,255.311422 359.364245,245.716191 C359.364245,238.624296 354.77301,232.36649 348.512527,229.863689 L348.512527,219.434369 C348.512527,205.250044 337.24323,193.986635 323.051945,193.986635 L299.678726,193.986635 L299.678726,206.918756 L323.051945,206.918756 C329.730008,206.918756 335.573446,212.759518 335.573446,219.851413" id="Fill-7" fill="url(#linearGradient-2)"></path>
                <path d="M358.946665,144.342837 C351.851558,144.342837 345.59054,148.514351 343.086133,154.772157 L299.678726,154.772157 L299.678726,167.704278 L343.503713,167.704278 C346.00812,173.962084 352.268603,178.133598 359.364245,178.133598 C368.546715,178.133598 376.476981,170.624659 376.476981,161.029428 C376.059401,151.851776 368.546715,144.342837 358.946665,144.342837" id="Fill-8" fill="url(#linearGradient-5)"></path>
                <path d="M108.518784,239.875964 L267.958197,239.875964 C277.557711,239.875964 285.070398,232.36649 285.070398,222.771794 L285.070398,112.220253 C285.070398,102.625022 277.557711,95.1160829 267.958197,95.1160829 L252.514709,95.1160829 L252.514709,64.2451674 C252.514709,28.7851585 223.715631,-2.84217094e-14 188.238491,-2.84217094e-14 C152.760815,-2.84217094e-14 123.961737,28.7851585 123.961737,64.2451674 L123.961737,95.1160829 L108.518784,95.1160829 C98.91927,95.1160829 91.4060481,102.625022 91.4060481,112.220253 L91.4060481,222.771794 C91.4060481,232.36649 98.91927,239.875964 108.518784,239.875964 Z M205.350691,200.661486 C206.185851,203.164287 204.099023,206.084668 201.177036,206.084668 L175.716989,206.084668 C172.795538,206.084668 171.125754,203.581331 171.543334,200.661486 L177.803817,176.047841 C173.630162,172.710416 171.125754,167.704278 171.125754,162.281096 C171.125754,152.685865 179.056021,144.759881 188.655535,144.759881 C198.255584,144.759881 206.185851,152.685865 206.185851,162.281096 C206.185851,168.121322 203.681443,173.12746 199.507788,176.047841 L205.350691,200.661486 Z M148.58716,64.2451674 C148.58716,42.1348593 166.53452,24.6131093 188.238491,24.6131093 C210.359506,24.6131093 227.889286,42.5519036 227.889286,64.2451674 L227.889286,95.1160829 L148.58716,95.1160829 L148.58716,64.2451674 L148.58716,64.2451674 Z" id="Fill-9" fill="url(#linearGradient-6)"></path>
            </g>
            <g id="Text" transform="translate(493.000000, 287.000000)" fill="url(#linearGradient-7)" fill-rule="nonzero">
                <g id="letters" transform="translate(0.000000, 0.000000)">
                    <path d="M19.797024,58.7181256 C14.417206,53.3409846 11.727565,46.8519036 11.727565,39.2530246 C11.727565,31.6536096 14.417206,25.1645286 19.797024,19.7873876 C25.176842,14.3743766 31.6686,11.6681396 39.271762,11.6681396 C43.9342,11.6681396 48.292018,12.7795436 52.344683,15.0018176 L52.344683,2.2046065 C48.112673,0.734512 43.754855,0 39.271762,0 C28.440923,0 19.187251,3.8353087 11.512351,11.5069966 C3.83745,19.1781496 0,28.4270036 0,39.2524886 C0,50.0779746 3.83745,59.3268286 11.512351,66.9979816 C19.187786,74.6696696 28.440923,78.5055136 39.271762,78.5055136 C43.754855,78.5055136 48.112673,77.7522636 52.344683,76.2468356 L52.344683,63.5031606 C48.292018,65.6901006 43.934735,66.7833026 39.271762,66.7833026 C31.6686,66.7833026 25.176842,64.0947316 19.797024,58.7175906 L19.797024,58.7181256 Z M73.110705,33.6595986 L73.110705,12.4738546 L89.841731,12.4738546 C92.746586,12.4738546 95.239216,13.5135206 97.319619,15.5923176 C99.363618,17.6716506 100.386153,20.1808756 100.386153,23.1205296 C100.386153,26.0243146 99.363618,28.4976706 97.319619,30.5411346 C95.239216,32.6199316 92.746586,33.6595986 89.841731,33.6595986 L73.110705,33.6595986 Z M98.555762,43.5540946 C102.572557,41.8334526 105.818436,39.1448816 108.292863,35.4883826 C110.839564,31.7601456 112.112646,27.6378856 112.112646,23.1210646 C112.112646,16.9553406 109.925171,11.7034736 105.549151,7.3659986 C101.209534,2.9926543 95.973192,0.8057146 89.84066,0.8057146 L61.434,0.8057146 L61.434,77.7522636 L73.108029,77.7522636 L73.108029,45.3288086 L86.288556,45.3288086 L103.127189,77.7522636 L116.308251,77.7522636 L98.555762,43.5540946 Z M162.737757,0.8067854 L146.43716,28.4452056 L130.136563,0.8067854 L116.579143,0.8067854 L140.572842,41.5663086 L140.572842,77.7560116 L152.300942,77.7560116 L152.300942,41.5663086 L176.294642,0.8067854 L162.737222,0.8067854 L162.737757,0.8067854 Z M194.532166,33.6595986 L211.263191,33.6595986 C214.168047,33.6595986 216.660676,32.6199316 218.74108,30.5411346 C220.785079,28.4976706 221.807078,26.0243146 221.807078,23.1205296 C221.807078,20.1808756 220.785079,17.6716506 218.74108,15.5923176 C216.660676,13.5135206 214.168047,12.4738546 211.263191,12.4738546 L194.532166,12.4738546 L194.532166,33.6595986 Z M194.532166,77.7533346 L182.857602,77.7533346 L182.857602,0.8067854 L211.264262,0.8067854 C217.39733,0.8067854 222.633136,2.993725 226.973288,7.3670686 C231.348773,11.7045436 233.536784,16.9558756 233.536784,23.1221356 C233.536784,29.2519916 231.348773,34.4856566 226.973288,38.8231316 C222.633672,43.1606066 217.39733,45.3298796 211.264262,45.3298796 L194.533237,45.3298796 L194.533237,77.7533346 L194.532166,77.7533346 Z M240.260352,0.8067854 L240.260352,12.4754606 L256.560949,12.4754606 L256.560949,77.7538696 L268.289049,77.7538696 L268.289049,12.4754606 L284.589646,12.4754606 L284.589646,0.8067854 L240.259817,0.8067854 L240.260352,0.8067854 Z M302.342671,19.7868516 C296.963388,25.1639936 294.273211,31.6525386 294.273211,39.2519536 C294.273211,46.8513686 296.962853,53.3399136 302.342671,58.7170546 C307.722489,64.0941966 314.214247,66.7827666 321.817409,66.7827666 C329.420571,66.7827666 335.912864,64.0941966 341.292147,58.7170546 C346.671965,53.3399136 349.362142,46.8513686 349.362142,39.2519536 C349.362142,31.6525386 346.671965,25.1639936 341.292147,19.7868516 C335.912329,14.4097106 329.420571,11.7211406 321.817409,11.7211406 C314.214247,11.7211406 307.722489,14.4097106 302.342671,19.7868516 Z M294.057997,66.9985166 C286.382562,59.3273636 282.545112,50.0785096 282.545112,39.2530246 C282.545112,28.4275386 286.382562,19.1786846 294.057997,11.5075316 C301.733433,3.8363794 310.98657,0.0005354 321.817409,0.0005354 C332.648248,0.0005354 341.90192,3.835844 349.57682,11.5075316 C357.25172,19.1786846 361.089171,28.4275386 361.089171,39.2530246 C361.089171,50.0785096 357.25172,59.3273636 349.57682,66.9985166 C341.901385,74.6702046 332.648248,78.5060486 321.817409,78.5060486 C310.98657,78.5060486 301.732897,74.6702046 294.057997,66.9985166 Z M417.95442,78.4519776 C412.861019,78.2372986 408.163248,76.8748106 403.858965,74.3655856 C398.981849,71.5335386 395.664232,67.7340996 393.90665,62.9661956 L404.8815,58.9333396 C405.778226,61.2990896 407.625213,63.2172786 410.422461,64.6868386 C412.897424,65.9411836 415.587065,66.6403616 418.492456,66.7838376 C422.975548,66.9631826 426.687189,65.8694456 429.628449,63.5036956 C432.103412,61.4961016 433.412363,59.2020896 433.555839,56.6211266 C433.771053,51.7102826 428.624116,47.7844986 418.115563,44.8453796 C401.653288,40.2209526 393.673769,32.3881216 394.175935,21.3468866 C394.498221,13.6039966 397.815838,7.8146286 404.12825,3.9787848 C408.934164,1.039131 414.708542,-0.2692853 421.451382,0.0535359 C429.628449,0.4122261 436.191945,3.2619397 441.141335,8.6032116 L432.587376,16.5613166 C429.790127,13.5499246 425.898606,11.9368896 420.913347,11.7216756 C417.398183,11.5787346 414.403387,12.0268296 411.92896,13.0659606 C408.055105,14.7154006 406.028773,17.6545186 405.849964,21.8843866 C405.634749,26.7240286 410.781151,30.6134076 421.289704,33.5530616 C430.758055,36.2057636 437.465563,40.1133456 441.410085,45.2752726 C444.13613,48.8600336 445.409213,52.8206156 445.229868,57.1586266 C444.942916,63.2526126 442.181536,68.4145396 436.945194,72.6449436 C432.067543,76.5519896 426.221427,78.5060486 419.406848,78.5060486 C418.904682,78.5060486 418.420718,78.4878466 417.95442,78.4519776 Z M454.536541,0.80625 L454.536541,77.7533346 L493.809373,77.7533346 L493.809373,66.0846596 L466.210034,66.0846596 L466.210034,45.0059876 L487.514092,45.0059876 L487.514092,33.3378476 L466.210034,33.3378476 L466.210034,12.4743896 L493.809373,12.4743896 L493.809373,0.80625 L454.536541,0.80625 L454.536541,0.80625 Z M514.25204,33.6595986 L514.25204,12.4738546 L530.983065,12.4738546 C533.888456,12.4738546 536.381085,13.5135206 538.460953,15.5923176 C540.505488,17.6716506 541.527487,20.1808756 541.527487,23.1205296 C541.527487,26.0243146 540.505488,28.4976706 538.460953,30.5411346 C536.381085,32.6199316 533.887921,33.6595986 530.983065,33.6595986 L514.25204,33.6595986 Z M539.697096,43.5540946 C543.713891,41.8334526 546.95977,39.1448816 549.434736,35.4883826 C551.980896,31.7601456 553.254516,27.6378856 553.254516,23.1210646 C553.254516,16.9553406 551.066506,11.7034736 546.69102,7.3659986 C542.351404,2.9926543 537.115062,0.8057146 530.981994,0.8057146 L502.575334,0.8057146 L502.575334,77.7522636 L514.249363,77.7522636 L514.249363,45.3288086 L527.430426,45.3288086 L544.269058,77.7522636 L557.449586,77.7522636 L539.697096,43.5540946 Z M563.745936,0.8067854 L563.745936,77.7533346 L578.056076,77.7533346 L623.407896,0.8067854 L609.851016,0.8067854 L575.475646,59.1474836 L575.475646,0.8067854 L563.745936,0.8067854 Z M668.953426,0.80625 L668.953426,12.4743896 L641.353556,12.4743896 L641.353556,33.3378476 L662.657606,33.3378476 L662.657606,45.0059876 L641.353556,45.0059876 L641.353556,66.0846596 L668.953426,66.0846596 L668.953426,77.7533346 L629.680596,77.7533346 L629.680596,0.80625 L668.953426,0.80625 Z M705.981994,0.8057146 C712.115062,0.8057146 717.351404,2.9926543 721.69102,7.3659986 C726.066506,11.7034736 728.254516,16.9553406 728.254516,23.1210646 C728.254516,27.6378856 726.980896,31.7601456 724.434736,35.4883826 C721.95977,39.1448816 718.713891,41.8334526 714.697096,43.5540946 L714.697096,43.5540946 L732.449586,77.7522636 L719.269058,77.7522636 L702.430426,45.3288086 L689.249363,45.3288086 L689.249363,77.7522636 L677.575334,77.7522636 L677.575334,0.8057146 Z M705.983065,12.4738546 L689.25204,12.4738546 L689.25204,33.6595986 L705.983065,33.6595986 C708.887921,33.6595986 711.381085,32.6199316 713.460953,30.5411346 C715.505488,28.4976706 716.527487,26.0243146 716.527487,23.1205296 C716.527487,20.1808756 715.505488,17.6716506 713.460953,15.5923176 C711.381085,13.5135206 708.888456,12.4738546 705.983065,12.4738546 L705.983065,12.4738546 Z" id="path-8"></path>
                </g>
            </g>
        </g>
    </g>
</svg>

<svg width="1280" height="640" xmlns="http://www.w3.org/2000/svg"><defs><linearGradient x1="50%" y1="94.501%" x2="50%" y2="0%" id="a"><stop stop-color="#861EFE" offset="0%"/><stop stop-color="#22ACFF" offset="100%"/></linearGradient><linearGradient x1="50%" y1="94.501%" x2="50%" y2="0%" id="b"><stop stop-color="#861EFE" offset="0%"/><stop stop-color="#22ACFF" offset="100%"/></linearGradient><linearGradient x1="50%" y1="94.501%" x2="50%" y2="0%" id="c"><stop stop-color="#861EFE" offset="0%"/><stop stop-color="#22ACFF" offset="100%"/></linearGradient><linearGradient x1="50%" y1="94.501%" x2="50%" y2="0%" id="d"><stop stop-color="#861EFE" offset="0%"/><stop stop-color="#22ACFF" offset="100%"/></linearGradient><linearGradient x1="50%" y1="94.501%" x2="50%" y2="0%" id="e"><stop stop-color="#861EFE" offset="0%"/><stop stop-color="#22ACFF" offset="100%"/></linearGradient><linearGradient x1="50%" y1="94.501%" x2="50%" y2="0%" id="f"><stop stop-color="#861EFE" offset="0%"/><stop stop-color="#22ACFF" offset="100%"/></linearGradient><linearGradient x1="50%" y1="94.501%" x2="50%" y2="0%" id="g"><stop stop-color="#861EFE" offset="0%"/><stop stop-color="#22ACFF" offset="100%"/></linearGradient></defs><g fill="none" fill-rule="evenodd"><path d="M0 0L1280 0 1280 640 0 640z"/><g transform="translate(42 195)" fill-rule="nonzero"><path d="M28.382 88.858v13.35c0 14.184 11.269 25.448 25.46 25.448h23.373v-12.933H53.842c-7.096 0-12.521-5.84-12.521-12.515V88.441c6.26-2.503 10.434-8.76 10.434-15.435 0-9.178-7.513-17.104-17.112-17.104-9.183 0-17.113 7.509-17.113 17.104 0 7.509 4.174 13.767 10.852 15.852" fill="url(#a)"/><path d="M53.842 206.919h23.373v-12.932H53.842c-14.191 0-25.46 11.263-25.46 25.447v10.43c-6.261 2.502-10.852 8.76-10.852 15.852 0 9.178 7.513 17.104 17.113 17.104 9.182 0 17.112-7.509 17.112-17.104 0-7.092-4.174-12.932-10.434-15.435v-10.43c-.418-7.091 5.425-12.932 12.521-12.932" fill="url(#b)"/><path d="M17.53 178.134c7.095 0 13.356-4.172 15.86-10.43h43.825v-12.932H32.973c-2.504-6.258-8.765-10.43-15.86-10.43C7.93 144.343 0 151.853 0 161.448a17.476 17.476 0 0 0 17.53 16.687" fill="url(#c)"/><path d="M348.095 102.625v-13.35c6.26-2.502 10.852-8.76 10.852-15.852 0-9.178-7.513-17.104-17.113-17.104-9.182 0-17.112 7.509-17.112 17.104 0 7.092 4.173 12.932 10.434 15.435v13.767c0 7.092-5.843 12.515-12.521 12.515h-23.373v12.933h23.373c14.19 0 25.46-11.681 25.46-25.448" fill="url(#d)"/><path d="M335.573 219.851v10.43c-6.26 2.503-10.434 8.76-10.434 15.435 0 9.178 7.513 17.104 17.113 17.104 9.182 0 17.112-7.509 17.112-17.104 0-7.092-4.591-13.35-10.851-15.852v-10.43c0-14.184-11.27-25.447-25.461-25.447h-23.373v12.932h23.373c6.678 0 12.521 5.84 12.521 12.932" fill="url(#b)"/><path d="M358.947 144.343c-7.095 0-13.356 4.171-15.86 10.43h-43.408v12.931h43.825c2.504 6.258 8.765 10.43 15.86 10.43 9.183 0 17.113-7.51 17.113-17.105a17.477 17.477 0 0 0-17.53-16.686" fill="url(#e)"/><path d="M108.519 239.876h159.44c9.599 0 17.111-7.51 17.111-17.104V112.22c0-9.595-7.512-17.104-17.112-17.104h-15.443v-30.87c0-35.46-28.8-64.246-64.277-64.246-35.477 0-64.276 28.785-64.276 64.245v30.871h-15.443c-9.6 0-17.113 7.509-17.113 17.104v110.552c0 9.594 7.513 17.104 17.113 17.104zm96.832-39.215c.835 2.503-1.252 5.424-4.174 5.424h-25.46c-2.921 0-4.591-2.504-4.174-5.424l6.26-24.613c-4.173-3.338-6.677-8.344-6.677-13.767 0-9.595 7.93-17.521 17.53-17.521 9.6 0 17.53 7.926 17.53 17.521 0 5.84-2.505 10.846-6.678 13.767l5.843 24.613zM148.587 64.245c0-22.11 17.948-39.632 39.651-39.632 22.122 0 39.651 17.939 39.651 39.632v30.871h-79.302v-30.87z" fill="url(#f)"/></g><path d="M19.797 58.718c-5.38-5.377-8.07-11.866-8.07-19.465 0-7.6 2.69-14.088 8.07-19.466 5.38-5.413 11.872-8.119 19.475-8.119 4.662 0 9.02 1.112 13.073 3.334V2.205A39.564 39.564 0 0 0 39.272 0C28.44 0 19.187 3.835 11.512 11.507 3.837 19.178 0 28.427 0 39.252c0 10.826 3.837 20.075 11.512 27.746 7.676 7.672 16.929 11.508 27.76 11.508 4.483 0 8.84-.754 13.073-2.26V63.504c-4.053 2.187-8.41 3.28-13.073 3.28-7.603 0-14.095-2.688-19.475-8.065zM73.111 33.66V12.474h16.73c2.906 0 5.398 1.04 7.479 3.118 2.044 2.08 3.066 4.589 3.066 7.529 0 2.903-1.022 5.377-3.066 7.42-2.08 2.079-4.573 3.119-7.478 3.119H73.11zm25.445 9.894c4.017-1.72 7.262-4.41 9.737-8.066 2.547-3.728 3.82-7.85 3.82-12.367 0-6.166-2.188-11.418-6.564-15.755-4.34-4.373-9.576-6.56-15.708-6.56H61.434v76.946h11.674V45.33h13.18l16.84 32.423h13.18L98.556 43.554zM162.738.807l-16.3 27.638L130.136.807h-13.558l23.994 40.76v36.189H152.3v-36.19L176.295.806h-13.558zm31.794 32.853h16.731c2.905 0 5.398-1.04 7.478-3.119 2.044-2.043 3.066-4.517 3.066-7.42 0-2.94-1.022-5.45-3.066-7.529-2.08-2.078-4.573-3.118-7.478-3.118h-16.73V33.66zm0 44.093h-11.674V.807h28.406c6.133 0 11.37 2.187 15.71 6.56 4.375 4.338 6.563 9.589 6.563 15.755 0 6.13-2.188 11.364-6.564 15.701-4.34 4.338-9.576 6.507-15.709 6.507h-16.73v32.423h-.002zM240.26.807v11.668h16.3v65.279h11.729V12.475h16.3V.807h-44.33.001zm62.083 18.98c-5.38 5.377-8.07 11.866-8.07 19.465 0 7.6 2.69 14.088 8.07 19.465 5.38 5.377 11.871 8.066 19.474 8.066 7.604 0 14.096-2.689 19.475-8.066 5.38-5.377 8.07-11.866 8.07-19.465 0-7.6-2.69-14.088-8.07-19.465-5.38-5.377-11.871-8.066-19.475-8.066-7.603 0-14.095 2.689-19.474 8.066zm-8.285 47.212c-7.675-7.672-11.513-16.92-11.513-27.746 0-10.825 3.838-20.074 11.513-27.745C301.733 3.836 310.987 0 321.818 0c10.83 0 20.084 3.835 27.759 11.507 7.675 7.67 11.512 16.92 11.512 27.745 0 10.826-3.837 20.074-11.512 27.746-7.676 7.671-16.929 11.507-27.76 11.507-10.83 0-20.084-3.836-27.759-11.507zm123.896 11.453c-5.093-.215-9.79-1.577-14.095-4.086-4.877-2.832-8.195-6.632-9.952-11.4l10.975-4.033c.896 2.366 2.743 4.284 5.54 5.754 2.475 1.254 5.165 1.953 8.07 2.097 4.484.18 8.195-.915 11.136-3.28 2.475-2.008 3.784-4.302 3.928-6.883.215-4.91-4.932-8.837-15.44-11.776-16.463-4.624-24.442-12.457-23.94-23.498.322-7.743 3.64-13.532 9.952-17.368 4.806-2.94 10.58-4.248 17.323-3.925 8.177.358 14.74 3.208 19.69 8.55l-8.554 7.957c-2.797-3.011-6.688-4.624-11.674-4.84-3.515-.142-6.51.306-8.984 1.345-3.874 1.65-5.9 4.589-6.079 8.818-.215 4.84 4.931 8.73 15.44 11.67 9.468 2.652 16.176 6.56 20.12 11.721 2.726 3.585 4 7.546 3.82 11.884-.287 6.094-3.048 11.256-8.285 15.486-4.877 3.907-10.724 5.861-17.538 5.861-.502 0-.986-.018-1.453-.054zM454.537.806v76.947h39.272V66.085H466.21V45.006h21.304V33.338H466.21V12.474h27.6V.806h-39.273zm59.715 32.854V12.474h16.731c2.905 0 5.398 1.04 7.478 3.118 2.044 2.08 3.066 4.589 3.066 7.529 0 2.903-1.022 5.377-3.066 7.42-2.08 2.079-4.573 3.119-7.478 3.119h-16.731zm25.445 9.894c4.017-1.72 7.263-4.41 9.738-8.066 2.546-3.728 3.82-7.85 3.82-12.367 0-6.166-2.188-11.418-6.564-15.755-4.34-4.373-9.576-6.56-15.709-6.56h-28.407v76.946h11.674V45.33h13.181l16.84 32.423h13.18l-17.753-34.198zM563.746.807v76.946h14.31L623.408.807H609.85l-34.375 58.34V.807h-11.73zm105.207 0v11.667h-27.6v20.864h21.305v11.668h-21.304v21.079h27.6v11.668H629.68V.806h39.272zm37.029-.001c6.133 0 11.37 2.187 15.709 6.56 4.376 4.337 6.564 9.59 6.564 15.755 0 4.517-1.274 8.64-3.82 12.367-2.475 3.657-5.721 6.345-9.738 8.066l17.753 34.198h-13.18L702.43 45.33h-13.18v32.423h-11.675V.806zm.001 11.668h-16.731V33.66h16.731c2.905 0 5.398-1.04 7.478-3.119 2.044-2.043 3.066-4.517 3.066-7.42 0-2.94-1.022-5.45-3.066-7.529-2.08-2.078-4.573-3.118-7.478-3.118z" transform="translate(493 287)" fill="url(#g)" fill-rule="nonzero"/></g></svg>
